X: 248
T: Zao nian jin
%%abc-version 2.0
%%abcx-abcm2ps-target-version 5.9.1 (29 Sep 2008)
%%abc-creator hum2abc beta
%%abcx-conversion-date 2013/10/02 07:52:29
%%abc-edited-by Helmut Schaffrath
%%humdrum-veritas 1891044363
%%humdrum-veritas-data 1668619550
%%continueall 1
%%barnumbers 0
L: 1/8
M: 2/4
K: G
d d g/ a/ g/ e/ [I:setbarnb 1]| 
d4 | 
g2B A | 
G G/ B/ (3A G E | 
D4 | 
d> B d B | 
A EG2 | 
A A/ B/ (3A G E | 
d4 | 
E DE2 | 
A2d B | 
c A A G | 
A/ B/ A/ B/ A B | 
E D B, D | 
G> E E/ D/ B, | 
A4 |]  



